characters/telebishop.svg

<?xml version="1.0" encoding="UTF-8"?>
<svg version="1.2" viewBox="0 0 55 60" xmlns="http://www.w3.org/2000/svg">
<g>
<path d="m5 4q22-7 44 0 5 1 5 18-1 24-10 26l6 11h-46l5-11q-8-2-9-26 0-17 5-18" fill="#505050"/>
<path d="m18 1.1q15.5-2.05 31 2.9 5 1 5 18-1 24-10 26l6 11h-19l-1-11q-17-16-12-46.9" fill="#777"/>
<path d="m9 6q18-2 36 0 2.4 0.6 3 3 2 14 0 28-0.6 2.4-3 3-18 2-36 0-2.4-0.6-3-3-2-14 0-28 0.6-2.4 3-3" fill="#ccf"/>
<path d="m43.5 5.85q5 3.45 5.2 24.15 0.8-10-0.7-21-0.6-2.4-3-3" fill="#E1E1FF"/>
<circle cx="16" cy="32" r="2" fill="#3f48CC"/>
<circle cx="33" cy="18" r="5" fill="#3f48CC"/>
</g>
</svg>

<?xml version="1.0" encoding="UTF-8"?>
<svg version="1.2" width="55" height="60" viewBox="0 0 55 60">
<g>
<path d="M5 4 Q27 -3 49 4 Q54 5 54 22 Q53 46 44 48 L50 59 L4 59 L9 48 Q1 46 0 22 Q0 5 5 4" fill="#505050"/>
<path d="M18 1.1 Q33.5 -0.95 49 4 Q54 5 54 22 Q53 46 44 48 L50 59 L31 59 L30 48 Q13 32 18 1.1" fill="#777777"/>
<path d="M9 6 Q27 4 45 6 Q47.4 6.6 48 9 Q50 23 48 37 Q47.4 39.4 45 40 Q27 42 9 40 Q6.6 39.4 6 37 Q4 23 6 9 Q6.6 6.6 9 6" fill="#CCCCFF"/>
<path d="M43.5 5.85 Q48.5 9.3 48.7 30 Q49.5 20 48 9 Q47.4 6.6 45 6" fill="#E1E1FF"/>
<circle fill="#3f48CC" cx="16" cy="32" r="2"></circle>
<circle fill="#3f48CC" cx="33" cy="18" r="5"></circle>
</g>
</svg>
